X:1
T:Good Health To Thee
T:Good Health To Thee
T:G. Loder
%%score [ 1 2 3 ]
L:1/8
Q:1/4=80
M:3/4
K:Bb
V:1 treble-8 nm="T1"
V:2 treble-8 nm="T2"
V:3 bass nm="B"
V:1
"^Allegretto" d3/2 d/ d d f f | (f/e/) d e c d2 | c3/2 c/ c c d g | f2 e2 z2 | e3/2 e/ e e d d | %5
w: Pass the brim- ming cup a-|round, _ a- round, a- round,|Chase a- way all care and|sor- row;|Let no joy- less sound with|
 d3 =B c d | (f2 e3/2) d/ (f/e/) (c/A/) | c2 B!fine! |] z2 z | c3/2 c/ c =B c f | (f2 =e4) | %11
w: us be found, From|time _ the hours _ we'll _|bor- row.||Let the toast then hon- or'd|be, _|
 B3/2 A/ B d c B | (B2 A4) | c3/2 c/ c c B A | d3 A (c/B/) (A/G/) | F3/2 A/ (c2 d3/2) =e/ | %16
w: Sing we all "Good health to|thee!" _|Hours so joy- ful and so|free, We'll length- * en _|out un- til _ to-|
 g2 f3 _e!D.C.! || %17
w: mor- row. _|
V:2
 B3/2 B/ B B c c | (B/A/) B A B B2 | G3/2 G/ G G =B B | =B2 c2 z2 | F3/2 F/ F F F F | ^F3 G G G | %6
w: Pass the brim- ming cup a-|round, _ a- round, a- round,|Chase a- way all care and|sor- row;|Let no joy- less sound with|us be found, From|
 (_A2 G3/2) G/ =A F | E2 D |] z2 z | A3/2 A/ A ^G A A | B6 | G3/2 ^F/ G B A G | (G2 F4) | %13
w: time _ the hours we'll|bor- row.||Let the toast then hon- or'd|be,|Sing we all "Good health to|thee!" _|
 F3/2 F/ F F F ^F | (^F2 G) z D z | F3/2 F/ A3/2 A/ B3/2 G/ | B2 A4 || %17
w: Hours so joy- ful and so|free, _ We'll|length- en out un til to-|mor- row.|
V:3
 B,,3/2 B,,/ B,, B, A, A, | G, F, G, F, B,,2 | E,3/2 E,/ E, E, D, G,, | %3
w: Pass the brim- ming cup a-|round, a- round, a- round,|Chase a- way all care and|
 G,,2 C, (G,/F,/) (E,/D,/) (C,/B,,/) | A,,3/2 A,,/ A,, A,, B,, B,, | D,3 (G,/F,/) E, D, | %6
w: sor- row, all _ care _ and _|sor- row; Let no joy- less|sound be _ found, From|
 C,2- C,3/2 C,/ F, F, | B,,2 B,, |] B,,/ B,,/ D, B,, | F,3/2 F,/ F,4 | z3/2 C/ C3/2 C,/ C,2 | %11
w: time _ the hours we'll|bor- row.|Let the toast then|hon- or'd be,|Good health to thee,|
 C,3/2 C,/ C, C, C,2 | z3/2 F,/ F,3/2 F,,/ F,,2 | A,,3/2 A,,/ A,, A,, A,, C, | B,,3 z G,, z | %15
w: Sing "Good health to thee!|Good health to thee!"|Hours so joy- ful and so|free, We'll|
 C,3/2 C,/ C, C, C, C, | C,2 F,4 || %17
w: length- en out un- til to-|mor- row.|

